X: 21503
T: GRAND SPY
C:
%R: reel
B: Elias Howe "The Musician's Companion" 1843 p.150 #3
S: http://imslp.org/wiki/The_Musician's_Companion_(Howe,_Elias)
Z: 2015 John Chambers <jc:trillian.mit.edu>
M: C|
L: 1/8
K: D
% - - - - - - - - - - - - - - - - - - - - - - - - -
V: 1
|:\
EDEC EGG2 | cGAG cBAc | EDEC EGGA | Ac[BG]E EDD2 :|\
Ddd2 dedB | cded cAAG | AAag | fedc | AcGE EDD2 :|
egg2 gagd eaa2 abag | egde cded | eage edd2 :|\
fedc deag | fedc AcFE | EGce fedc | AcGE EDD2 :|
% - - - - - - - - - - - - - - - - - - - - - - - - -

%%sep 1 1 500

